usr/share/icons/biglinux-icons-material/24/actions/snap-nodes-path.svg

<svg xmlns="http://www.w3.org/2000/svg" viewBox="0 0 24 24"><path d="M20 5A15 15 0 0 0 5 20h1A14 14 0 0 1 20 6V5z" style="fill:currentColor;fill-opacity:1;stroke:none;color:#dedede"/><path d="M8 6a2 2 0 0 0-2 2 2 2 0 0 0 2 2 2 2 0 0 0 2-2 2 2 0 0 0-2-2zm0 1a1 1 0 0 1 1 1 1 1 0 0 1-1 1 1 1 0 0 1-1-1 1 1 0 0 1 1-1zm4 2a2 2 0 0 0-2 2 2 2 0 0 0 2 2 2 2 0 0 0 2-2 2 2 0 0 0-2-2zm0 1a1 1 0 0 1 1 1 1 1 0 0 1-1 1 1 1 0 0 1-1-1 1 1 0 0 1 1-1z" style="fill:currentColor;fill-opacity:1;stroke:none;color:#3daee9"/></svg>

<svg xmlns="http://www.w3.org/2000/svg" viewBox="0 0 24 24">
  <defs id="defs3051">
    <style type="text/css" id="current-color-scheme">
      .ColorScheme-Text {
        color:#dedede;
      }
      .ColorScheme-Highlight {
        color:#3daee9;
      }
      </style>
  </defs>
 <path 
     style="fill:currentColor;fill-opacity:1;stroke:none" 
     d="M 20 5 A 15 15 0 0 0 5 20 L 6 20 A 14 14 0 0 1 20 6 L 20 5 z "
     class="ColorScheme-Text"
     />
 <path 
     style="fill:currentColor;fill-opacity:1;stroke:none" 
     d="M 8 6 A 2 2 0 0 0 6 8 A 2 2 0 0 0 8 10 A 2 2 0 0 0 10 8 A 2 2 0 0 0 8 6 z M 8 7 A 1 1 0 0 1 9 8 A 1 1 0 0 1 8 9 A 1 1 0 0 1 7 8 A 1 1 0 0 1 8 7 z M 12 9 A 2 2 0 0 0 10 11 A 2 2 0 0 0 12 13 A 2 2 0 0 0 14 11 A 2 2 0 0 0 12 9 z M 12 10 A 1 1 0 0 1 13 11 A 1 1 0 0 1 12 12 A 1 1 0 0 1 11 11 A 1 1 0 0 1 12 10 z "
     class="ColorScheme-Highlight"
     />
</svg>
